X: 1
T:Jacky Tar
M:4/4
L:1/8
K:Em
d2 | \
e2- e>f g2 f>e | d2 B2 B2 A>G | F>^cd>e f>ge>f | d2 A2 A2 d2 |
e2- e>f g2 f>e | d>BG>B d>Bc>B | A>GF>E D>EF>A | G2 E2 E2 ::
A2 | \
B>GE>G B>GE>G | B>AG>F E>EF>G | A>FD>F A>FD>F | A>GF>E D>DE>F |
G2 G2 g2 f>e | d>BG>B d>Bc>B | A>GF>E D>EF>A | G2 E2 E2 :|
